build/img/eye_off.svg

<svg width="24" height="24" viewBox="0 0 24 24" fill="none" xmlns="http://www.w3.org/2000/svg">
<g clip-path="url(#clip0)">
<path fill-rule="evenodd" clip-rule="evenodd" d="M4.78087 22.6246L20.7809 2.62463L19.2191 1.37524L16.4127 4.88323C15.4343 4.48114 14.3622 4.1865 13.2025 4.06342C12.811 4.02187 12.41 3.99994 12 3.99994C8.15036 3.99994 5.16775 5.92549 3.19268 7.76888C2.20014 8.69526 1.44132 9.61931 0.929801 10.3123C0.673483 10.6596 0.477733 10.9509 0.344368 11.1584C0.277649 11.2622 0.226429 11.3452 0.190941 11.4038C0.173194 11.4332 0.15937 11.4565 0.149499 11.4733L0.137656 11.4936L0.133963 11.5L0.132674 11.5022L0.132169 11.5031C0.131955 11.5035 0.131757 11.5038 1 11.9999L0.131757 11.5038C-0.043919 11.8112 -0.043919 12.1886 0.131757 12.4961L1 11.9999C0.131757 12.4961 0.131854 12.4962 0.131956 12.4964L0.132179 12.4968L0.132698 12.4977L0.134028 12.5L0.137853 12.5067L0.150156 12.5277C0.160422 12.5452 0.174815 12.5694 0.193306 12.5999C0.23028 12.661 0.283682 12.7474 0.353265 12.8553C0.49235 13.071 0.696573 13.3738 0.963997 13.7337C1.49762 14.4519 2.28953 15.4067 3.32529 16.3535C4.0239 16.9921 4.83848 17.6318 5.76479 18.1932L3.21913 21.3752L4.78087 22.6246ZM7.02631 16.6163C7.01816 16.6112 7.00992 16.6063 7.00158 16.6015C6.12418 16.0928 5.34602 15.491 4.67471 14.8773C3.75495 14.0365 3.04686 13.1835 2.56936 12.5409C2.41691 12.3357 2.28864 12.1529 2.18515 11.9999C2.28168 11.8573 2.39977 11.6886 2.53895 11.5C2.99618 10.8806 3.67486 10.0546 4.55732 9.23099C6.33225 7.57439 8.84964 5.99994 12 5.99994C12.3386 5.99994 12.6691 6.01804 12.9915 6.05225C13.7342 6.13108 14.4373 6.29583 15.0999 6.52433L13.639 8.35036C13.1378 8.12499 12.5823 7.99994 12 7.99994C9.79086 7.99994 8 9.7908 8 11.9999C8 12.8996 8.298 13.7314 8.79959 14.3997L7.02631 16.6163ZM10.1365 12.7285C10.0483 12.5029 10 12.2574 10 11.9999C10 10.8954 10.8954 9.99994 12 9.99994C12.1027 9.99994 12.2033 10.0076 12.3014 10.0224L10.1365 12.7285ZM19.5537 6.66959L20.3107 7.32299C21.4651 8.31942 22.3479 9.35537 22.9422 10.141C23.2401 10.5349 23.4676 10.8686 23.6223 11.1069C23.6998 11.2261 23.7592 11.3217 23.8002 11.3893C23.8207 11.423 23.8367 11.4498 23.8481 11.4691L23.8616 11.4923L23.8658 11.4995L23.8672 11.502L23.8678 11.503L23.868 11.5034C23.8681 11.5036 23.8682 11.5038 23 11.9999C23.8682 12.4961 23.868 12.4964 23.8678 12.4968L23.8673 12.4977L23.866 12.4999L23.8623 12.5063L23.8505 12.5266L23.8348 12.5531L23.8091 12.596C23.7736 12.6547 23.7224 12.7377 23.6556 12.8415C23.5223 13.0489 23.3265 13.3403 23.0702 13.6875C22.5587 14.3806 21.7999 15.3046 20.8073 16.231C18.8323 18.0744 15.8496 19.9999 12 19.9999C11.6271 19.9999 11.2616 19.9818 10.9038 19.9472L9.90848 19.8511L10.1008 17.8603L11.0962 17.9565C11.3907 17.985 11.692 17.9999 12 17.9999C15.1504 17.9999 17.6677 16.4255 19.4427 14.7689C20.3251 13.9453 21.0038 13.1193 21.4611 12.4998C21.6002 12.3113 21.7183 12.1426 21.8148 11.9999C21.6929 11.8198 21.5367 11.5982 21.3471 11.3475C20.814 10.6427 20.0254 9.71873 19.0039 8.83702L18.2469 8.18362L19.5537 6.66959ZM23 11.9999L23.8682 11.5038C24.0439 11.8112 24.0439 12.1886 23.8682 12.4961L23 11.9999Z" fill="#94A0B1"/>
</g>
<defs>
<clipPath id="clip0">
<rect width="24" height="24" fill="white"/>
</clipPath>
</defs>
</svg>

<svg width="24" height="24" viewBox="0 0 24 24" fill="none" xmlns="http://www.w3.org/2000/svg"><g clip-path="url(#clip0)"><path fill-rule="evenodd" clip-rule="evenodd" d="M4.78 22.625l16-20-1.56-1.25-2.807 3.508a11.662 11.662 0 00-3.21-.82A11.388 11.388 0 0012 4C8.15 4 5.168 5.925 3.193 7.769A18.73 18.73 0 00.93 10.312a16.07 16.07 0 00-.74 1.092l-.04.07-.012.02-.004.006-.001.002v.001L1 12l-.868-.496a1 1 0 000 .992L1 12l-.868.496v.002l.002.002.004.007.012.02.043.073a16.254 16.254 0 00.77 1.134 18.676 18.676 0 002.362 2.62 15.678 15.678 0 002.44 1.84l-2.546 3.181 1.562 1.25zm2.246-6.009a13.531 13.531 0 01-2.352-1.739A16.683 16.683 0 012.186 12a16.73 16.73 0 012.371-2.77C6.332 7.574 8.85 6 12 6a9.39 9.39 0 013.1.524L13.639 8.35a4 4 0 00-4.84 6.05l-1.773 2.216zm3.11-3.887a2 2 0 012.165-2.706l-2.165 2.706zm9.418-6.06l.757.654a18.512 18.512 0 013.311 3.784 10.767 10.767 0 01.226.362l.014.023.004.007.001.003v.001h.001L23 12l.868.497-.002.003-.004.006-.011.02-.016.027-.026.043a16.043 16.043 0 01-.739 1.091 18.72 18.72 0 01-2.263 2.544C18.832 18.074 15.85 20 12 20c-.373 0-.738-.018-1.096-.053l-.996-.096.193-1.99.995.095c.295.029.596.044.904.044 3.15 0 5.668-1.575 7.443-3.231a16.734 16.734 0 002.372-2.77 16.51 16.51 0 00-2.81-3.163l-.758-.652 1.307-1.514zM23 12l.868-.495a1 1 0 010 .992L23 12z" fill="#94A0B1"/></g><defs><clipPath id="clip0"><path fill="#fff" d="M0 0h24v24H0z"/></clipPath></defs></svg>
